flags/other/checkered.svg

<svg xmlns="http://www.w3.org/2000/svg" width="512" height="512" fill="none"><g clip-path="url(#a)"><path fill="#EEE" d="M0 0h512v512H0z"/><path fill="#333" d="M384 0h128v128H0v128h512v128H0v128h128V0h128v512h128z"/></g><defs><clipPath id="a"><path fill="#fff" d="M0 0h512v512H0z"/></clipPath></defs></svg>

<svg width="512" height="512" viewBox="0 0 512 512" fill="none" xmlns="http://www.w3.org/2000/svg">
<rect width="512" height="512" fill="var(--flag-palette-white, #eeeeee)"/>
<path d="M384 0H512V128H0V256H512V384H0V512H128V0H256V512H384V0Z" fill="var(--flag-palette-black, #333333)"/>
</svg>
